X:0711
T:Mid Lothian
P:Mid Lothian
C:Wm. Campbell's Country Dances X, 1795
R:Reel (8x40) ABABB
B:RSCDS 7-11
Z:Anselm Lingnau <anselm@strathspey.org>
M:C
L:1/8
K:D
|:B|"D"ADFA "Em"GBEG|"D"FDAF "Em"EB,B,B|"D"ADFA "Em"GBEG|"D"FA"Em"EG "D"FDDB|
    "D"ADFA "Em"GBEG|"D"FDAF "Em"EB,B,G|"D"FAd=c "G"BG"E7"ed|"A"cAag "D"fdd||
!segno!f/g/|"D"afdf "Em"gbeg|"D"afed "A"cecA|\
     "D"a/g/f/e/ fd "Em"gbeg|"D"fa"A7"eg "D"fddg|
     "D"a/g/f/e/ fd "Em"gbeg|"D"fafd "A"cecA|\
     "G"Bd"D/F#"Ad "Em"Gd"D"Fd|"Em"EB"A7"A>G "D"FDD!D.S.!:|
